images/50406981.svg

<?xml version="1.0" encoding="UTF-8"?>
<svg xmlns="http://www.w3.org/2000/svg" xmlns:xlink="http://www.w3.org/1999/xlink" width="300pt" height="300pt" viewBox="0 0 300 300" version="1.1">
<defs>
<g>
<symbol overflow="visible" id="glyph0-0">
<path style="stroke:none;" d="M 0.546875 1.9375 L 0.546875 -7.75 L 6.046875 -7.75 L 6.046875 1.9375 Z M 1.171875 1.328125 L 5.4375 1.328125 L 5.4375 -7.140625 L 1.171875 -7.140625 Z M 1.171875 1.328125 "/>
</symbol>
<symbol overflow="visible" id="glyph0-1">
<path style="stroke:none;" d="M 4.328125 -7.28125 C 3.546875 -7.28125 2.921875 -6.984375 2.453125 -6.390625 C 1.992188 -5.804688 1.765625 -5.007812 1.765625 -4 C 1.765625 -2.988281 1.992188 -2.1875 2.453125 -1.59375 C 2.921875 -1.007812 3.546875 -0.71875 4.328125 -0.71875 C 5.117188 -0.71875 5.742188 -1.007812 6.203125 -1.59375 C 6.660156 -2.1875 6.890625 -2.988281 6.890625 -4 C 6.890625 -5.007812 6.660156 -5.804688 6.203125 -6.390625 C 5.742188 -6.984375 5.117188 -7.28125 4.328125 -7.28125 Z M 4.328125 -8.171875 C 5.453125 -8.171875 6.351562 -7.789062 7.03125 -7.03125 C 7.707031 -6.28125 8.046875 -5.269531 8.046875 -4 C 8.046875 -2.738281 7.707031 -1.726562 7.03125 -0.96875 C 6.351562 -0.21875 5.453125 0.15625 4.328125 0.15625 C 3.203125 0.15625 2.300781 -0.21875 1.625 -0.96875 C 0.957031 -1.71875 0.625 -2.726562 0.625 -4 C 0.625 -5.269531 0.957031 -6.28125 1.625 -7.03125 C 2.300781 -7.789062 3.203125 -8.171875 4.328125 -8.171875 Z M 4.328125 -8.171875 "/>
</symbol>
<symbol overflow="visible" id="glyph0-2">
<path style="stroke:none;" d="M 1.078125 -8.015625 L 2.546875 -8.015625 L 6.09375 -1.3125 L 6.09375 -8.015625 L 7.15625 -8.015625 L 7.15625 0 L 5.6875 0 L 2.125 -6.703125 L 2.125 0 L 1.078125 0 Z M 1.078125 -8.015625 "/>
</symbol>
<symbol overflow="visible" id="glyph0-3">
<path style="stroke:none;" d="M 1.078125 -8.015625 L 2.171875 -8.015625 L 2.171875 -4.734375 L 6.109375 -4.734375 L 6.109375 -8.015625 L 7.1875 -8.015625 L 7.1875 0 L 6.109375 0 L 6.109375 -3.8125 L 2.171875 -3.8125 L 2.171875 0 L 1.078125 0 Z M 1.078125 -8.015625 "/>
</symbol>
</g>
</defs>
<g id="surface9469">
<rect x="0" y="0" width="300" height="300" style="fill:rgb(100%,100%,100%);fill-opacity:1;stroke:none;"/>
<path style="fill:none;stroke-width:1.2;stroke-linecap:butt;stroke-linejoin:miter;stroke:rgb(100%,0%,0%);stroke-opacity:1;stroke-miterlimit:10;" d="M 176.367188 176.738281 L 176.265625 163.535156 "/>
<path style="fill:none;stroke-width:1.2;stroke-linecap:butt;stroke-linejoin:miter;stroke:rgb(0%,0%,0%);stroke-opacity:1;stroke-miterlimit:10;" d="M 176.265625 163.535156 L 176.164062 150.328125 "/>
<path style="fill:none;stroke-width:1.2;stroke-linecap:butt;stroke-linejoin:miter;stroke:rgb(100%,0%,0%);stroke-opacity:1;stroke-miterlimit:10;" d="M 170.152344 176.785156 L 170.050781 163.582031 "/>
<path style="fill:none;stroke-width:1.2;stroke-linecap:butt;stroke-linejoin:miter;stroke:rgb(0%,0%,0%);stroke-opacity:1;stroke-miterlimit:10;" d="M 170.050781 163.582031 L 169.949219 150.375 "/>
<path style=" stroke:none;fill-rule:nonzero;fill:rgb(100%,100%,100%);fill-opacity:1;" d="M 169.261719 170.261719 L 178.261719 170.261719 L 178.261719 183.261719 L 169.261719 183.261719 Z M 169.261719 170.261719 "/>
<g style="fill:rgb(100%,0%,0%);fill-opacity:1;">
  <use xlink:href="#glyph0-1" x="169.261719" y="180.163086"/>
</g>
<path style="fill:none;stroke-width:1.2;stroke-linecap:butt;stroke-linejoin:miter;stroke:rgb(0%,0%,0%);stroke-opacity:1;stroke-miterlimit:10;" d="M 173.058594 150.351562 L 161.570312 143.839844 "/>
<path style="fill:none;stroke-width:1.2;stroke-linecap:butt;stroke-linejoin:miter;stroke:rgb(0%,0%,100%);stroke-opacity:1;stroke-miterlimit:10;" d="M 161.570312 143.839844 L 150.082031 137.324219 "/>
<path style="fill:none;stroke-width:1;stroke-linecap:butt;stroke-linejoin:miter;stroke:rgb(0%,0%,0%);stroke-opacity:1;stroke-miterlimit:10;" d="M 195.828125 136.972656 L 195.828125 136.972656 M 193.015625 138.019531 L 193.546875 138.917969 M 190.207031 139.066406 L 191.261719 140.863281 M 187.394531 140.113281 L 188.980469 142.808594 M 184.582031 141.160156 L 186.695312 144.757812 M 181.773438 142.207031 L 184.414062 146.703125 M 178.960938 143.253906 L 182.128906 148.648438 M 176.148438 144.300781 L 179.847656 150.59375 M 173.339844 145.351562 L 177.5625 152.542969 M 170.695312 146.335938 L 175.417969 154.371094 "/>
<path style="fill:none;stroke-width:1.2;stroke-linecap:butt;stroke-linejoin:miter;stroke:rgb(0%,0%,100%);stroke-opacity:1;stroke-miterlimit:10;" d="M 150.082031 137.324219 L 138.699219 144.015625 "/>
<path style="fill:none;stroke-width:1.2;stroke-linecap:butt;stroke-linejoin:miter;stroke:rgb(0%,0%,0%);stroke-opacity:1;stroke-miterlimit:10;" d="M 138.699219 144.015625 L 127.3125 150.703125 "/>
<path style=" stroke:none;fill-rule:nonzero;fill:rgb(100%,100%,100%);fill-opacity:1;" d="M 142.082031 130.824219 L 159.082031 130.824219 L 159.082031 143.824219 L 142.082031 143.824219 Z M 142.082031 130.824219 "/>
<g style="fill:rgb(0%,0%,100%);fill-opacity:1;">
  <use xlink:href="#glyph0-2" x="142.082031" y="140.725586"/>
  <use xlink:href="#glyph0-3" x="150.06543" y="140.725586"/>
</g>
<path style="fill:none;stroke-width:1.2;stroke-linecap:butt;stroke-linejoin:miter;stroke:rgb(0%,0%,0%);stroke-opacity:1;stroke-miterlimit:10;" d="M 127.3125 150.703125 L 126.035156 163.847656 "/>
<path style="fill:none;stroke-width:1.2;stroke-linecap:butt;stroke-linejoin:miter;stroke:rgb(0%,0%,100%);stroke-opacity:1;stroke-miterlimit:10;" d="M 126.035156 163.847656 L 124.753906 176.992188 "/>
<path style="fill:none;stroke-width:1.2;stroke-linecap:butt;stroke-linejoin:miter;stroke:rgb(0%,0%,0%);stroke-opacity:1;stroke-miterlimit:10;" d="M 103.101562 140.148438 L 127.3125 150.703125 "/>
<path style="fill:none;stroke-width:1.2;stroke-linecap:butt;stroke-linejoin:miter;stroke:rgb(0%,0%,0%);stroke-opacity:1;stroke-miterlimit:10;" d="M 103.039062 146.902344 L 122.40625 155.347656 "/>
<path style="fill:none;stroke-width:1.2;stroke-linecap:butt;stroke-linejoin:miter;stroke:rgb(0%,0%,100%);stroke-opacity:1;stroke-miterlimit:10;" d="M 124.753906 176.992188 L 98.964844 182.683594 "/>
<path style=" stroke:none;fill-rule:nonzero;fill:rgb(100%,100%,100%);fill-opacity:1;" d="M 116.753906 170.492188 L 133.753906 170.492188 L 133.753906 183.492188 L 116.753906 183.492188 Z M 116.753906 170.492188 "/>
<g style="fill:rgb(0%,0%,100%);fill-opacity:1;">
  <use xlink:href="#glyph0-2" x="116.753906" y="180.393555"/>
  <use xlink:href="#glyph0-3" x="124.737305" y="180.393555"/>
</g>
<path style="fill:none;stroke-width:1.2;stroke-linecap:butt;stroke-linejoin:miter;stroke:rgb(0%,0%,100%);stroke-opacity:1;stroke-miterlimit:10;" d="M 98.964844 182.683594 L 92.273438 171.296875 "/>
<path style="fill:none;stroke-width:1.2;stroke-linecap:butt;stroke-linejoin:miter;stroke:rgb(0%,0%,0%);stroke-opacity:1;stroke-miterlimit:10;" d="M 92.273438 171.296875 L 85.582031 159.910156 "/>
<path style="fill:none;stroke-width:1.2;stroke-linecap:butt;stroke-linejoin:miter;stroke:rgb(0%,0%,100%);stroke-opacity:1;stroke-miterlimit:10;" d="M 102.984375 177.257812 L 97.628906 168.148438 "/>
<path style="fill:none;stroke-width:1.2;stroke-linecap:butt;stroke-linejoin:miter;stroke:rgb(0%,0%,0%);stroke-opacity:1;stroke-miterlimit:10;" d="M 97.628906 168.148438 L 92.277344 159.039062 "/>
<path style=" stroke:none;fill-rule:nonzero;fill:rgb(100%,100%,100%);fill-opacity:1;" d="M 94.964844 176.183594 L 102.964844 176.183594 L 102.964844 189.183594 L 94.964844 189.183594 Z M 94.964844 176.183594 "/>
<g style="fill:rgb(0%,0%,100%);fill-opacity:1;">
  <use xlink:href="#glyph0-2" x="94.964844" y="186.084961"/>
</g>
<path style="fill:none;stroke-width:1.2;stroke-linecap:butt;stroke-linejoin:miter;stroke:rgb(0%,0%,0%);stroke-opacity:1;stroke-miterlimit:10;" d="M 85.582031 159.910156 L 103.101562 140.148438 "/>
<path style="fill:none;stroke-width:1.2;stroke-linecap:butt;stroke-linejoin:miter;stroke:rgb(0%,0%,0%);stroke-opacity:1;stroke-miterlimit:10;" d="M 85.582031 159.910156 L 59.292969 157.351562 "/>
<path style="fill:none;stroke-width:1.2;stroke-linecap:butt;stroke-linejoin:miter;stroke:rgb(0%,0%,0%);stroke-opacity:1;stroke-miterlimit:10;" d="M 59.292969 157.351562 L 35.25 168.28125 "/>
<path style="fill:none;stroke-width:1.2;stroke-linecap:butt;stroke-linejoin:miter;stroke:rgb(0%,0%,0%);stroke-opacity:1;stroke-miterlimit:10;" d="M 37.808594 141.996094 L 59.292969 157.351562 "/>
<path style="fill:none;stroke-width:1.2;stroke-linecap:butt;stroke-linejoin:miter;stroke:rgb(0%,0%,0%);stroke-opacity:1;stroke-miterlimit:10;" d="M 35.25 168.28125 L 37.808594 141.996094 "/>
<path style="fill:none;stroke-width:1.2;stroke-linecap:butt;stroke-linejoin:miter;stroke:rgb(0%,0%,0%);stroke-opacity:1;stroke-miterlimit:10;" d="M 195.828125 136.972656 L 195.625 110.558594 "/>
<path style="fill:none;stroke-width:1.2;stroke-linecap:butt;stroke-linejoin:miter;stroke:rgb(0%,0%,0%);stroke-opacity:1;stroke-miterlimit:10;" d="M 195.828125 136.972656 L 218.800781 150 "/>
<path style="fill:none;stroke-width:1.2;stroke-linecap:butt;stroke-linejoin:miter;stroke:rgb(0%,0%,0%);stroke-opacity:1;stroke-miterlimit:10;" d="M 218.800781 150 L 219.003906 176.410156 "/>
<path style="fill:none;stroke-width:1.2;stroke-linecap:butt;stroke-linejoin:miter;stroke:rgb(0%,0%,0%);stroke-opacity:1;stroke-miterlimit:10;" d="M 225.035156 152.59375 L 225.199219 173.722656 "/>
<path style="fill:none;stroke-width:1.2;stroke-linecap:butt;stroke-linejoin:miter;stroke:rgb(0%,0%,0%);stroke-opacity:1;stroke-miterlimit:10;" d="M 241.574219 136.617188 L 218.800781 150 "/>
<path style="fill:none;stroke-width:1.2;stroke-linecap:butt;stroke-linejoin:miter;stroke:rgb(0%,0%,0%);stroke-opacity:1;stroke-miterlimit:10;" d="M 219.003906 176.410156 L 241.980469 189.441406 "/>
<path style="fill:none;stroke-width:1.2;stroke-linecap:butt;stroke-linejoin:miter;stroke:rgb(0%,0%,0%);stroke-opacity:1;stroke-miterlimit:10;" d="M 241.980469 189.441406 L 264.75 176.058594 "/>
<path style="fill:none;stroke-width:1.2;stroke-linecap:butt;stroke-linejoin:miter;stroke:rgb(0%,0%,0%);stroke-opacity:1;stroke-miterlimit:10;" d="M 241.109375 182.742188 L 259.324219 172.039062 "/>
<path style="fill:none;stroke-width:1.2;stroke-linecap:butt;stroke-linejoin:miter;stroke:rgb(0%,0%,0%);stroke-opacity:1;stroke-miterlimit:10;" d="M 264.75 176.058594 L 264.546875 149.648438 "/>
<path style="fill:none;stroke-width:1.2;stroke-linecap:butt;stroke-linejoin:miter;stroke:rgb(0%,0%,0%);stroke-opacity:1;stroke-miterlimit:10;" d="M 264.546875 149.648438 L 241.574219 136.617188 "/>
<path style="fill:none;stroke-width:1.2;stroke-linecap:butt;stroke-linejoin:miter;stroke:rgb(0%,0%,0%);stroke-opacity:1;stroke-miterlimit:10;" d="M 259.183594 153.75 L 240.804688 143.328125 "/>
</g>
</svg>

<svg xmlns="http://www.w3.org/2000/svg" xmlns:xlink="http://www.w3.org/1999/xlink" width="300pt" height="300pt" viewBox="0 0 300 300"><defs><symbol overflow="visible"><path d="M.547 1.938V-7.75h5.5v9.688zm.625-.61h4.266v-8.47H1.171zm0 0"/></symbol><symbol overflow="visible" id="a"><path d="M4.328-7.28c-.78 0-1.406.296-1.875.89-.46.585-.687 1.382-.687 2.39 0 1.012.226 1.813.687 2.406.47.586 1.094.875 1.875.875.79 0 1.414-.288 1.875-.874.457-.593.688-1.394.688-2.406 0-1.008-.23-1.805-.687-2.39-.46-.594-1.086-.89-1.875-.89zm0-.892c1.125 0 2.024.383 2.703 1.14C7.708-6.28 8.048-5.27 8.048-4c0 1.262-.34 2.273-1.016 3.03C6.353-.22 5.454.157 4.33.157S2.3-.22 1.625-.97c-.668-.75-1-1.757-1-3.03 0-1.27.332-2.28 1-3.03.676-.76 1.578-1.142 2.703-1.142zm0 0"/></symbol><symbol overflow="visible" id="b"><path d="M1.078-8.016h1.47l3.546 6.704v-6.704h1.062V0H5.688L2.124-6.703V0H1.078zm0 0"/></symbol><symbol overflow="visible" id="c"><path d="M1.078-8.016h1.094v3.282H6.11v-3.282h1.077V0H6.11v-3.813H2.17V0H1.078zm0 0"/></symbol></defs><g><path fill="#fff" d="M0 0h300v300H0z"/><path d="M176.367 176.738l-.1-13.203" stroke-width="1.2" stroke="#f00" stroke-miterlimit="10" fill="none"/><path d="M176.266 163.535l-.102-13.207" stroke-width="1.2" stroke="#000" stroke-miterlimit="10" fill="none"/><path d="M170.152 176.785l-.1-13.203" stroke-width="1.2" stroke="#f00" stroke-miterlimit="10" fill="none"/><path d="M170.05 163.582l-.1-13.207" stroke-width="1.2" stroke="#000" stroke-miterlimit="10" fill="none"/><path d="M169.262 170.262h9v13h-9zm0 0" fill="#fff"/><use xlink:href="#a" x="169.262" y="180.163" fill="#f00"/><path d="M173.06 150.352l-11.49-6.512" stroke-width="1.2" stroke="#000" stroke-miterlimit="10" fill="none"/><path d="M161.57 143.84l-11.488-6.516" stroke-width="1.2" stroke="#00f" stroke-miterlimit="10" fill="none"/><path d="M195.828 136.973m-2.812 1.047l.53.898m-3.34.148l1.056 1.797m-3.867-.75l1.585 2.696m-4.398-1.65l2.113 3.598m-4.922-2.55l2.64 4.495m-5.452-3.45l3.17 5.395m-5.982-4.347l3.7 6.294m-6.508-5.242l4.222 7.19m-6.867-6.206l4.723 8.035" stroke="#000" stroke-miterlimit="10" fill="none"/><path d="M150.082 137.324l-11.383 6.692" stroke-width="1.2" stroke="#00f" stroke-miterlimit="10" fill="none"/><path d="M138.7 144.016l-11.387 6.687" stroke-width="1.2" stroke="#000" stroke-miterlimit="10" fill="none"/><path d="M142.082 130.824h17v13h-17zm0 0" fill="#fff"/><g fill="#00f"><use xlink:href="#b" x="142.082" y="140.726"/><use xlink:href="#c" x="150.065" y="140.726"/></g><path d="M127.313 150.703l-1.278 13.145" stroke-width="1.2" stroke="#000" stroke-miterlimit="10" fill="none"/><path d="M126.035 163.848l-1.28 13.144" stroke-width="1.2" stroke="#00f" stroke-miterlimit="10" fill="none"/><path d="M103.102 140.148l24.21 10.555M103.04 146.902l19.366 8.446" stroke-width="1.2" stroke="#000" stroke-miterlimit="10" fill="none"/><path d="M124.754 176.992l-25.79 5.692" stroke-width="1.2" stroke="#00f" stroke-miterlimit="10" fill="none"/><path d="M116.754 170.492h17v13h-17zm0 0" fill="#fff"/><g fill="#00f"><use xlink:href="#b" x="116.754" y="180.394"/><use xlink:href="#c" x="124.737" y="180.394"/></g><path d="M98.965 182.684l-6.692-11.387" stroke-width="1.2" stroke="#00f" stroke-miterlimit="10" fill="none"/><path d="M92.273 171.297l-6.69-11.387" stroke-width="1.2" stroke="#000" stroke-miterlimit="10" fill="none"/><path d="M102.984 177.258l-5.355-9.11" stroke-width="1.2" stroke="#00f" stroke-miterlimit="10" fill="none"/><path d="M97.63 168.148l-5.353-9.11" stroke-width="1.2" stroke="#000" stroke-miterlimit="10" fill="none"/><path d="M94.965 176.184h8v13h-8zm0 0" fill="#fff"/><use xlink:href="#b" x="94.965" y="186.085" fill="#00f"/><path d="M85.582 159.91l17.52-19.762M85.582 159.91l-26.29-2.558M59.293 157.352l-24.043 10.93M37.81 141.996l21.483 15.356M35.25 168.28l2.56-26.284M195.828 136.973l-.203-26.414M195.828 136.973L218.8 150M218.8 150l.204 26.41M225.035 152.594l.164 21.13M241.574 136.617L218.8 150M219.004 176.41l22.976 13.03M241.98 189.44l22.77-13.38M241.11 182.742l18.214-10.703M264.75 176.06l-.203-26.412M264.547 149.648l-22.973-13.03M259.184 153.75l-18.38-10.422" stroke-width="1.2" stroke="#000" stroke-miterlimit="10" fill="none"/></g></svg>
